X: 3
T: Christmas In Killarney
Z: Aaron Bergen
S: https://thesession.org/tunes/434#setting48640
R: jig
M: 6/8
L: 1/8
K: Dmaj
B|:"D"A2 DD2 B|A2 DD2 A|"G"BAG BAG|"D"A2 D D2 A|
"G"B2 cd2 c|B2 A-"D"A2 D|"A"EFE D2 C|1 "D"D3-D2 B:|2 "D"D3 D2 E||
"Bm"F2 BB2 c|d B2-B2c|dB2 -BBc|"F#m"F3-F2 F|
"A"E2 AA2 B|c2 E E2E|"D"d2d c2 B|"A"A3-A2 B|
"D"A2 DD2 B|A2 DD2 A|"G"BAG BAG|"D"A2 DD2 A|
"G"B2 cd2 c|"D"B2 A-A2 A|"Bm"F2F- FGA|"G"B3-B2 c|
"G"d2 cd2 B|"D"A2 d-d2 D|"A"EFE D2 C|"D"D6||

%-------------------- TUNE SEPARATOR --------------------%

